X:1
T:"Without Sun" by Mussorgsky
T:"Without The Sun" by Mussorgsky
T:Modest Mussorgsky (1839-1881)
T:1. "Within four walls"
C:Modest Mussorgsky (1839-1881)
%%score 1 { ( 2 4 ) | ( 3 5 ) }
L:1/8
Q:1/4=73
M:6/4
K:D
V:1 treble nm="Гобой"
V:2 treble nm="Фортепиано"
V:4 treble 
V:3 bass 
V:5 bass 
V:1
"^Andante tranquillo" z4 z2 | A2 A2 A2 _B2 =F2 F[Q:1/4=50] !fermata!z | %2
w: |Ком- нат- ка тес- на- я,|
[Q:1/4=73] =B2 G2 G z c3 A A[Q:1/4=50] !fermata!z |[Q:1/4=73] _B2 E2 D2 A3 E E2 | %4
w: ти- ха- я, ми- ла- я;|Тень не- про- гляд- на- я,|
 G2 D2 C2 =F3 D D[Q:1/4=50] !fermata!z |[Q:1/4=73] A2 ^F z A2 d3 _A A z | %6
w: тень без- от- вет- на- я;|Ду- ма глу- бо- ка- я,|
 G2 G2 G2 _B3 D D[Q:1/4=50] !fermata!z |[Q:1/4=73] E2 C2 D2 F2 D z z C | E2 C2 D2 A3 F F z | %9
w: пес- ня у- ны- ла- я;|В бью- щем- ся серд- це на-|деж- да за- вет- на- я;|
 _B2 E2 =F2 G2 A2 B2 | =c2 _B2 c2 _A3 A A[Q:1/4=50] !fermata!z |[Q:1/4=73] G2 E2 G2 _B2 G z G2 | %12
w: Быст- рый по- лет, за мгно-|вень- ем мгно- ве- ни- я;|Взор не- под- виж- ный на|
 E2 D2 E2 _B3 G G z | _B2 A2 G2 B3 A A2 | _B2 A2 G2 c3 A A z |[Q:1/4=60] A3 =F F z G2 D2 D z | %16
w: сча- стье да- ле- ко- е;|Мно- го сом- не- ни- я,|мно- го тер- пе- ни- я.|Вот о- на ночь мо- я,|
 E4 z2 (2:3:2E2 E2 |[Q:1/4=40] ^F3 D D2 z4 !fermata!z2 |] %18
w: ночь о- ди-|но- ка- я.|
V:2
 [DFA]6- | [DFA]6 !fermata![D=F_B]6 | [DG=B]6 [EGc]4- [EGc] !fermata!z | ([D_B]6 [CA]6 | %4
 [_B,G]6 !fermata![B,=F]6) | [DA]6 [D_Ad]6 | [DG]6 [DGd]4- [DGd] !fermata!z | [G,B,E]6 [A,EF]6 | %8
 [G,B,E]6 [A,CFA]6 | [f_bd']6 [_egb]6 | [_e_a=c']6- [eac']4 !fermata!z2 | [=c=eg]6 [_B_e_b]6 | %12
 [Ad=eg]6 [_Bd_b]6 | [_E_e]6 [=E=e]4- [Ee] z | [_E_e]6 [=E=e]4- [Ee] z | [DA]6 [DB]6 | E12 | %17
 [A,^F]6- [A,F] z z2 !fermata!z2 |] %18
V:3
 [D,A,]6- | [D,A,]6 [D,_A,]6 | [D,G,]6 [D,=A,]4- [D,A,] !fermata!z | D,,12 | !fermata!D,,12 | %5
 [^F,,D,]6 [=F,,D,]6 | [E,,D,]6 [_E,,D,]4- [E,,D,] !fermata!z | D,,6 A,,6 | D,,6 D,6 | %9
 z2 D,,4 z2 z4 | z2 D,,4- D,, z z2 !fermata!z2 | z6 z2 D,,4 | z6 z2 D,,4 | (D2 A,2 _B,2) C4- C z | %14
 (D2 A,2 _B,2) C4- C z | [D,=F,]6 [G,,G,]6 | [=C,G,]12 | [D,,D,]6 z4 !fermata!z2 |] %18
V:4
 x6 | x12 | x6 B2 A2- A x | (=F2 E2 D2 E2 ^B,2 C2 | _E2 D2 C2 D2 A,2 !fermata!_B,2) | x12 | x12 | %7
 (D2 C2 D2 C2 D2 C2 | D2 C2 D2 C2 D2 F2) | [_Bd]6 [GB]6 | [_A=c]6- [Ac]6 | [=C=EG]6 [_B,_EG]6 | %12
 [A,DG]6 [G,DG]6 | x12 | x12 | x12 | (D6 =C6) | E2 D4- D x x4 |] %18
V:5
 x6 | x12 | x12 | x12 | x12 | x12 | x12 | x12 | x12 | x12 | x12 | x12 | x12 | x6 z2 D,,4 | %14
 x6 z2 D,,4 | x12 | x12 | x12 |] %18

